X: 1
T: Bobbing Joe
Z: 1997 by John Chambers <jc@trillian.mit.edu>
B: Morris Ring
H: See also the Willow Tree, which has the same A part.
M: 6/8
L: 1/8
K: G
D \
| "G"G2A B2c | d2g gdB | "C"cBA "D7"d2A | "G"G2G "D7"FED \
| "G"G2A B2c | d2g gdB | "C"cBA "D7"d2F | "G"G3- G2 :|
|: c/d/ \
| "C"e2A ABc | "G"d2G GAB | "D7"c2A "G"B2G | "D7"A2F DBc \
| "G"dcB "D7"cBA | "G"BAG "D7"ABc | "G"dBG "D7"D[AE]F | "G"G3- G2 :|
%%sep 5 5 234
K:C
x4 x4 x4 x4 x4 x4 x4 x4 |
x4 x4 x4 x4 x4 x4 x4 x4 |
x4 x4 x4 x4 x4 x4 x4 x4 |
x4 x4 x4 x4 x4 x4 x4 x4 |
x4 x4 x4 x4 x4 x4 x4 x4 |
x4 x4 x4 x4 x4 x4 x4 x4 |
